X:1
T:Title
%%score ( 1 2 ) { 3 | 4 }
L:1/8
Q:1/4=94
M:3/4
K:F
V:1 treble nm="Grand Piano, Soprano"
V:2 treble 
V:3 bass nm="Choir Pad, Hear the Cry, Clara Brooks"
V:4 bass 
V:1
 C>C [CF]3 [CF] | [CF]>[CF] [CG] [CF]3 | [B,D]>[A,C] [CA]3 [FA] | [GB]>[EG] [FA]4 | %4
w: By~Andrew~Linnaeus~Byers * * *||||
 [FA]>[FB] [Fc]3 [Fc] | [Fc]>[Fd] [Fc] [FA]3 | [CF]>[FA] [EG]3 [DG] | [FG]>[FG] [EG]4 | %8
w: ||||
 C>C [CF]3 [CF] | [CF]>[CF] [CG] [CF]3 | [B,D]>[A,C] [CA]3 [FA] | [FB]>[Fc] [Fd]4 | %12
w: ||||
 [Fd]>[Fd] [Fc]3 [Fc] | [Fc]>[FB] [FA] [Fc]3 | [CF]>[FA] [FA]3 [CG] | [CF]>[CG] [CF]4 | %16
w: ||||
[M:4/4] z2 c6 | z2 d6 |[M:3/4] [FB]>[Fd] [Fc]3 [Fc] | [Fc]>[Fc] [FA]3 [CG] | [CF]>[CG] [CF]4- | %21
w: |||||
 [CF]4 z2 |] %22
w: |
V:2
 x6 | x6 | x6 | x6 | x6 | x6 | x6 | x6 | x6 | x6 | x6 | x6 | x6 | x6 | x6 | x6 | %16
[M:4/4] c>c z2 E>G FA | G>F z F F>F F2 |[M:3/4] x6 | x6 | x6 | x6 |] %22
V:3
 A,>A, A,3 A, | A,>A, B, A,3 | F,>F, F,3 C | C>C C4 | F,>G, A,3 A, | A,>B, A,[K:treble] C3 | %6
 A,>C C3 =B, | D>D C4 | B,>B, A,3 A, | A,>A, B, A,3 | F,>F, F,3 C | B,>A, B,4 | B,>B, A,3 A, | %13
 A,>[K:treble]C C A,3 | A,>C[K:bass] C3 B, | A,>B, A,4 |[M:4/4] z4 G,>B, .A,2 | z2 z B, B,>B, B,2 | %18
[M:3/4] D>B, A,3 A, | A,>A, C3 B, | A,>B, A,4- | A,4 z2 |] %22
V:4
 F,>F, F,3 F, | F,>F, F, F,3 | z2 z2 z F, | C,>C, F,4 | z z/ F,/ F,3 F, | F,>F, F, F,3 | %6
 F,>F, G,3 G, | G,,>G,, C,4 | E,>E, F,3 F, | F,>F, C, F,3 | z2 z2 z _E, | D,>C, B,,4 | %12
 B,,>B,, F,3 F, | F,>F, F, F,3 | F,>F, C,3 C, | C,>C, F,4 |[M:4/4] z4 C,>C, .F,2 | %17
 z2 z B,, B,,>B,, B,,2 |[M:3/4] B,,>B,, F,3 F, | F,>F, C,3 C, | C,>C, F,4- | F,4 z2 |] %22

